X:1
T:Do it Fair
R:slip jig
O:19th century Irish
D:Brian McNamara. Fort of Jewels
Z:Paul Stewart Cranford (P.S.C.), <http://www.cranfordpub.com>
L:1/8
M:9/8
Q:388
K:D
F2 A A/B/ A2 TB2 z|B2 e e2 d c/B/ A2|TF2 A A/B/ A2 TB2 z|A2 d d2 A F/E/ D2:|f3 Tf2 d f2 a|b2 e e2 d c/B/ A2|[1Tf3 Tf2d f2 A|A2 d d2 A F/E/ D2:|[2Tf3 Te3 d3|A2 d d2 A F/E/ D2|]
